source/img/icons/icon-call.svg

<svg width="19" height="19" viewBox="0 0 19 19" fill="none" xmlns="http://www.w3.org/2000/svg">
<path d="M9.77423 8.22389C9.77423 8.41289 9.92786 8.56139 10.1156 8.56139C10.5048 8.56139 10.8189 8.87526 10.8189 9.25664C10.8189 9.44226 10.9725 9.59414 11.1602 9.59414C11.348 9.59414 11.5016 9.44226 11.5016 9.25664C11.5016 8.50064 10.8803 7.88639 10.1156 7.88639C9.92786 7.88639 9.77423 8.03827 9.77423 8.22389ZM15.3319 9.59414C15.5231 9.59414 15.6733 9.44226 15.6733 9.25664C15.6733 6.22589 13.1812 3.76215 10.1156 3.76215C9.92786 3.76215 9.77423 3.914 9.77423 4.09965C9.77423 4.28527 9.92786 4.43715 10.1156 4.43715C12.8057 4.43715 14.9905 6.60051 14.9905 9.25664C14.9905 9.44226 15.1441 9.59414 15.3319 9.59414Z" fill="#161C35"/>
<path d="M12.9047 9.25661C12.9047 9.44223 13.0583 9.59411 13.2461 9.59411C13.4338 9.59411 13.5874 9.44223 13.5874 9.25661C13.5874 7.36324 12.0307 5.82424 10.1156 5.82424C9.92786 5.82424 9.77423 5.97612 9.77423 6.16174C9.77423 6.35074 9.92786 6.49924 10.1156 6.49924C11.6552 6.49924 12.9047 7.73786 12.9047 9.25661ZM10.1156 1.69998C9.92786 1.69998 9.77423 1.85186 9.77423 2.03748C9.77423 2.22312 9.92786 2.37498 10.1156 2.37498C13.9561 2.37498 17.0798 5.46312 17.0798 9.25661C17.0798 9.44223 17.23 9.59411 17.4211 9.59411C17.6089 9.59411 17.7625 9.44223 17.7625 9.25661C17.7625 5.0885 14.3316 1.69998 10.1156 1.69998ZM13.4509 12.8139L13.0037 13.0535C12.2492 13.4619 11.6621 14.5812 10.7311 13.7375L8.30007 11.3L6.2 9.25661C5.14491 7.92348 6.32631 7.60623 6.73936 6.85699L6.98175 6.41825C7.25485 5.91873 7.35384 5.35849 7.27191 4.79823C7.1934 4.23799 6.93737 3.72836 6.52771 3.32336C6.02931 2.83062 5.36703 2.56062 4.66038 2.56062C3.95372 2.56062 3.28802 2.83062 2.7896 3.32336L2.61552 3.49886C1.69379 4.41012 1.58796 5.97948 2.3151 7.92348C3.00126 9.77973 4.38386 11.7912 6.2 13.5867C8.96858 16.3239 12.0512 17.9 14.2634 17.9C15.1373 17.9 15.8781 17.6536 16.4038 17.1339L16.5813 16.9584C17.0763 16.469 17.3529 15.8142 17.3563 15.1089C17.3529 14.4204 17.0695 13.7454 16.5813 13.2627C15.7586 12.4494 14.4716 12.2671 13.4509 12.8139Z" fill="#161C35"/>
</svg>

<svg viewBox="0 0 19 19" xmlns="http://www.w3.org/2000/svg">
  <path d="M9.8 8.2c0 .2.1.4.3.4.4 0 .7.3.7.7 0 .1.2.3.4.3l.3-.3c0-.8-.6-1.4-1.4-1.4-.2 0-.3.1-.3.3Zm5.5 1.4c.2 0 .4-.2.4-.3 0-3-2.5-5.5-5.6-5.5-.2 0-.3.1-.3.3 0 .2.1.3.3.3 2.7 0 4.9 2.2 4.9 4.9 0 .1.1.3.3.3Z"/>
  <path d="m12.9 9.3.3.3c.2 0 .4-.2.4-.3 0-2-1.6-3.5-3.5-3.5-.2 0-.3.2-.3.4s.1.3.3.3c1.6 0 2.8 1.2 2.8 2.8Zm-2.8-7.6c-.2 0-.3.2-.3.3 0 .2.1.4.3.4 3.9 0 7 3 7 6.9 0 .1.1.3.3.3.2 0 .4-.2.4-.3 0-4.2-3.5-7.6-7.7-7.6Zm3.4 11.1-.5.3c-.8.4-1.3 1.5-2.3.6l-2.4-2.4-2.1-2c-1-1.4.1-1.7.5-2.4l.3-.5a2.6 2.6 0 0 0-.5-3c-.5-.6-1.1-.8-1.8-.8s-1.4.2-2 .7v.2c-1 1-1.1 2.5-.4 4.4.7 1.9 2 3.9 3.9 5.7 2.8 2.7 5.9 4.3 8 4.3a3 3 0 0 0 2.2-.8l.2-.1a2.6 2.6 0 0 0 0-3.7c-.8-.9-2.1-1-3.1-.5Z"/>
</svg>
